X: 7353
T: Cliffs Of Moher, The
R: jig
M: 6/8
K: Adorian
|:~a3 bag|eaf ged|c2A BAG|EFG AB/c/d|
e2a bag|eaf ged|c2A BAG|1 EFG A2g:|2 EFG AB/c/d||
|:ege dBA|efe dBA|G2B dBA|G2B dBd|
[1 ege dBA|efe dBA|G2B dBA|EFG AB/c/d:|
[2 e2e d2d|c2c B2B|EFG BAG|EDB, A,3||

